X: 8
T: Missa Assumpta est Maria / Kyrie
N: Derived from Rue1003a-Missa_Assumpta_est_Maria-Kyrie.krn
C: Pierre de la Rue
%%abc-version 2.0
%%abcx-abcm2ps-target-version 5.9.1 (29 Sep 2008)
%%abc-creator hum2abc beta
%%abcx-conversion-date 2019/02/17 08:01:09
%%abc-edited-by Jesse Rodin
%%abc-edited-by Chris Gage 11-19-2012
%%abcx-initial-encoding-date 2012/11/19/
%%humdrum-veritas 1712326864
%%humdrum-veritas-data 2633008733
%%linebreak <none>
%%barnumbers 0
L: 1/4
M: 3/1
Q: 1/2=120
%%staves [1 2 3 4]
V: 1 clef=treble-8
V: 2 clef=treble-8
V: 3 clef=bass
V: 4 clef=bass
K: F
[V:1] c8c4 | 
[V:2] G8A4 | 
[V:3] C,12 | 
[V:4] C,8F,,4- | 
[V:1] A8c4 | 
[V:2] F4E4G2A2 | 
[V:3] C,8E,4 | 
[V:4] F,,4C,8 | 
[V:1] d4f6e2 | 
[V:2] B3cdcBAB4 | 
[V:3] F,12 | 
[V:4] B,,8D,4 | 
[V:1] e8e4 | 
[V:2] c4z4C4 | 
[V:3] G,4G,2A,4A,2 | 
[V:4] C,8A,,4 | 
[V:1] d4d2c4BA | 
[V:2] D2D3EFGA4 | 
[V:3] F,12 | 
[V:4] B,,4B,,2A,,4A,,2 | 
[V:1] B3cd2B2A4 | 
[V:2] D4z2d3cA2 | 
[V:3] G,8F,4 | 
[V:4] G,,8z4 | 
[V:1] G4z4z4 | 
[V:2] B8A4 | 
[V:3] z4z4F,4- | 
[V:4] G,,8D,4 | 
[V:1] d8d4 | 
[V:2] A2B3cd4B2 | 
[V:3] F,4G,8 | 
[V:4] D,2B,,4G,,2G,,4 | 
[V:1] e4e2c4c2 | 
[V:2] c3BG2A4G2- | 
[V:3] G,4E,2F,3G,E,2 | 
[V:4] C,4C,2F,,4C,2 | 
[V:1] d2e2f3ge4 | 
[V:2] GFE2D4z2E2 | 
[V:3] D,2C,2D,4C,4 | 
[V:4] G,,2C,3=B,,=B,,2C,4 | 
[V:1] z2A2B2c2d3e | 
[V:2] F3GE4D2G2- | 
[V:3] z12 | 
[V:4] z2F,,2G,,2A,,2B,,3C, | 
[V:1] c2A2B3cA4 | 
[V:2] GFF2G4z4 | 
[V:3] z2C,2D,2E,2F,3G, | 
[V:4] A,,4G,,4z4 | 
[V:1] z2c2d2e2f3g | 
[V:2] G2A2G2c4B2 | 
[V:3] E,4z4F,4 | 
[V:4] C,3A,,B,,2C,2D,4 | 
[V:1] e2c2d2e2f3g | 
[V:2] c3BAGc4=B2 | 
[V:3] G,2A,4G,4F,2 | 
[V:4] C,2F,4E,2D,4 | 
[V:1] e12 ||  
[V:2] c12 ||  
[V:3] G,12 ||  
[V:4] C,12 ||  
[V:1]  [K:F] [K:clef=treble-8][M:2/1]c8- | 
[V:2]  [K:F] [K:clef=treble-8][M:2/1]A8 | 
[V:3]  [K:F] [K:clef=bass][M:2/1]F,8 | 
[V:4]  [K:F] [K:clef=bass][M:2/1]F,,8 | 
[V:1] c8 | 
[V:2] G8 | 
[V:3] E,8 | 
[V:4] C,8 | 
[V:1] c8 | 
[V:2] F8 | 
[V:3] C,8 | 
[V:4] A,,8 | 
[V:1] B8 | 
[V:2] G8 | 
[V:3] D,8 | 
[V:4] G,,8 | 
[V:1] A8 | 
[V:2] z4A4 | 
[V:3] z4F,4- | 
[V:4] z4D,4 | 
[V:1] z4d4 | 
[V:2] A2B4B2 | 
[V:3] F,4F,4- | 
[V:4] D,2B,,4A,,G,, | 
[V:1] d2c4c2 | 
[V:2] A8 | 
[V:3] F,4F,4- | 
[V:4] F,,8 | 
[V:1] B2A2d4 | 
[V:2] z4F4 | 
[V:3] F,8 | 
[V:4] D,3C,B,,2A,,2 | 
[V:1] c6G2 | 
[V:2] A4G4 | 
[V:3] E,2F,4E,2 | 
[V:4] C,2F,,2C,4 | 
[V:1] A2c4F2 | 
[V:2] F4F2A2- | 
[V:3] F,8- | 
[V:4] F,,8- | 
[V:1] c2d2c2f2- | 
[V:2] A2B2c4- | 
[V:3] F,8 | 
[V:4] F,,8 | 
[V:1] f2e2e3d | 
[V:2] c4c4 | 
[V:3] G,8 | 
[V:4] C,8 | 
[V:1] !fermata!f8 | 
[V:2] !fermata!A8 | 
[V:3] !fermata!F,8 | 
[V:4] !fermata!F,,8 | 
[V:1] e8- | 
[V:2] c8- | 
[V:3] G,8- | 
[V:4] C,8- | 
[V:1] e8 | 
[V:2] c8 | 
[V:3] G,8 | 
[V:4] C,8 | 
[V:1] f6e2 | 
[V:2] d6c2 | 
[V:3] B,8 | 
[V:4] B,,8- | 
[V:1] d4c4 | 
[V:2] B4A4 | 
[V:3] F,6E,2 | 
[V:4] B,,4F,,4 | 
[V:1] B4A4 | 
[V:2] G4c4- | 
[V:3] D,4C,4 | 
[V:4] G,,4A,,3B,, | 
[V:1] G2c2G2c2- | 
[V:2] c4c4 | 
[V:3] E,8 | 
[V:4] C,8 | 
[V:1] c2BAB4 | 
[V:2] d6cB | 
[V:3] D,8 | 
[V:4] G,,8 | 
[V:1] A2G4^F2 | 
[V:2] cBAGA4 | 
[V:3] z8 | 
[V:4] z8 | 
[V:1] G2B3cd2 | 
[V:2] z2G3AB2 | 
[V:3] D,8 | 
[V:4] G,,8 | 
[V:1] _edcBc4 | 
[V:2] cBAGA4 | 
[V:3] z8 | 
[V:4] z8 | 
[V:1] B4d4- | 
[V:2] G8 | 
[V:3] D,8- | 
[V:4] G,,8- | 
[V:1] d2efg4 | 
[V:2] G4G4 | 
[V:3] D,8 | 
[V:4] G,,8 | 
[V:1] c4f4 | 
[V:2] A4c4- | 
[V:3] F,8 | 
[V:4] F,,8 | 
[V:1] e4e2d2- | 
[V:2] c2BAG4- | 
[V:3] G,8 | 
[V:4] C,6B,,2 | 
[V:1] d2c4=B2 | 
[V:2] G4G4 | 
[V:3] E,4D,4 | 
[V:4] C,4G,,4 | 
[V:1] c8 ||  
[V:2] E8 ||  
[V:3] C,8 ||  
[V:4] C,,8 ||  
[V:1]  [K:F] [K:clef=treble-8][M:3/1]c8e4- | 
[V:2]  [K:F] [K:clef=treble-8][M:3/1]G8c4- | 
[V:3]  [K:F] [K:clef=bass][M:3/1]C,8C,4- | 
[V:4]  [K:F] [K:clef=bass][M:3/1]C,8A,,4- | 
[V:1] e4f8 | 
[V:2] c4A8 | 
[V:3] C,4C,8 | 
[V:4] A,,4F,,8 | 
[V:1] g4g2a4gf | 
[V:2] G2A2G2c4B2 | 
[V:3] E,8F,4 | 
[V:4] C,8D,4 | 
[V:1] e3fg2c2d2e2 | 
[V:2] c8B4 | 
[V:3] G,12 | 
[V:4] C,6B,,A,,G,,4 | 
[V:1] f6c6 | 
[V:2] c8z4 | 
[V:3] A,8A,4 | 
[V:4] F,,8F,,4 | 
[V:1] d4d2c4c2 | 
[V:2] F8F3E | 
[V:3] B,6A,6 | 
[V:4] B,,6F,,6 | 
[V:1] B2G2B2A2G3F | 
[V:2] D2C2D2C2D2E2 | 
[V:3] G,2E,2G,2F,4E,2 | 
[V:4] G,,2C,2G,,2A,,2B,,2C,2 | 
[V:1] F4z4f4 | 
[V:2] C8c4- | 
[V:3] F,12 | 
[V:4] F,,8z4 | 
[V:1] e4c8 | 
[V:2] c4G4A4 | 
[V:3] z12 | 
[V:4] C,12 | 
[V:1] d4d2c4BA | 
[V:2] B4A3Bc2d2 | 
[V:3] F,8E,4- | 
[V:4] B,,4F,,3G,,A,,2B,,2 | 
[V:1] G4A6F2 | 
[V:2] c12 | 
[V:3] E,4C,8 | 
[V:4] C,4F,,8 | 
[V:1] F4z4z4 | 
[V:2] z12 | 
[V:3] D,3E,F,2G,3F,E,D, | 
[V:4] z2B,,2A,,2B,,2C,3B,, | 
[V:1] z12 | 
[V:2] z12 | 
[V:3] C,2D,2C,2F,4E,2 | 
[V:4] A,,G,,F,,4A,,2G,,4 | 
[V:1] A4A3Bc2A2 | 
[V:2] c8A2c2 | 
[V:3] F,8F,3E, | 
[V:4] F,,4z4F,,4 | 
[V:1] B2G4c2A2d2- | 
[V:2] G2c2BAG2F4 | 
[V:3] D,2C,2D,2E,2F,4- | 
[V:4] G,,3A,,B,,2C,2F,,2B,,2- | 
[V:1] d2c4f2e2d2- | 
[V:2] z2A4A2G2B2- | 
[V:3] F,4F,4G,4- | 
[V:4] B,,2A,,2F,,4C,2B,,2 | 
[V:1] d2g3ef2edcB | 
[V:2] Bcd3cBAB2G2 | 
[V:3] G,4A,4G,4 | 
[V:4] G,,4D,4z2G,,2 | 
[V:1] A2G4c4=B2 | 
[V:2] c2B2G8 | 
[V:3] F,2G,3C,E,2D,4 | 
[V:4] A,,2B,,2C,4G,,4 | 
[V:1] c12 |]  
[V:2] G12 |]  
[V:3] C,12 |]  
[V:4] C,,12 |]  



